X: 1275
T: Kuru Dallar Gibi
C: İsmet Burkay
O: Turkey
F: http://compmusic.upf.edu/node/140
N: hicaz--sarki--devrisureyya--kuru_dallar--ismet_burkay
N: makam= hicaz
N: form= sarki
N: usul= devrisureyya = 16/4
M: 16/4
L: 1/16
K: C _7/8B ^f ^c 
Q: 1/4=132
%%MIDI tuningsystem comma53
d4d2dcd2 e2=f4fed2  | c4c2d2d2 e2c2B2c2BA  | \
w:  Ah  ku ru  *  dal *  lar   |  *  gi bi  kal *  bim   | 
A4A2BAG4d4e2f2  | 
w:  *  ko ra  *  düş müş   | 
g3^3/4fg2fee8z4  | e2^3/4f2g2^1/4fed2 c2B2B AA4  | \
w:  *  *  ya nı *  yor    |  SAZ  | 
d4d2dcd2 e2=f4fed2  | 
w:  Ah  ku ru  *  dal *  lar   | 
c4c2d2d2 e2c2B2c2BA  | A4A2BAG4d4e2f2  | \
w:  *  gi bi  kal *  bim   |  *  ko ra  *  düş müş   | 
g3^3/4fg2fee8z4  | 
w:  *  *  ya nı *  yor    | 
def2g2a2gf fee2d efga2  | a4g2a2a4g2f2e2ed  | 
w:  SAZ  |  Ah  ki mi  sev sem   | 
d4e2f2g4a_1/4b=c' ba2ag  | a4f ga_1/4b=c'2 b2a2g2f2f^e  | 
w:  *  gi di yor  hep   |  *  ni *  ye  *  her *  kes   | 
^3/4f4g2fee8z4  | A3Bc2d2e2 ^3/4f2gag ffee2  | \
w:  *  ü zü *  yor    |  SAZ  | 
e4d2e2e4f4a2g2  | 
w:  Ah  ki mi  sev sem   | 
f2ede2=fed2 c2c2B AA4  | A4A2BAG4d2c2B2BA  | 
w:  *  *  *  gi di *  yor  *  hep   |  *  ni ye  *  her kes   | 
A4B2BAA8z4  | d2g2f ^ef2g2 a_1/4bagf ef4  | \
w:  *  ü zü *  yor    |  SAZ  | 
f4g2f^ef4g2f2efed  | 
w:  Ah  a cı *  yor  bak   | 
c4d2^e2f4g4g2fe  | f4g2a2a4d'2=c'2_1/4b2ba  | \
w:  *  ba na  el ler   |  *  de li  ol dum   | 
a4g2f^ef8z4  | 
w:  *  sa nı *  yor    | 
a2a^gf4ga =b=c'baa ga4  | a4a2a^ga4a2g2f2f^e  | 
w:  SAZ  |  Ah  a cı *  yor  bak   | 
f4^e2f2g4=c'4(3_1/4bag(3gfe  | f4e2f2g4a2g2f2fe  | \
w:  *  ba na  el ler   |  *  de li  ol dum   | 
e4e2^1/4fee8z4  | 
w:  *  sa nı *  yor    | 
def2g2a2gf fee2d efga2  | a4g2a2a4g2f2e2ed  | 
w:  SAZ  |  Ah  ki mi  sev sem   | 
d4e2f2g4a_1/4b=c' ba2ag  | a4f ga_1/4b=c'2 b2a2g2f2f^e  | 
w:  *  gi di yor  hep   |  *  ni *  ye  *  her *  kes   | 
^3/4f4g2fee8z4  | A3Bc2d2e2 ^3/4f2gag ffee2  | \
w:  *  ü zü *  yor    |  SAZ  | 
e4d2e2e4f4a2g2  | 
w:  Ah  ki mi  sev sem   | 
f2ede2=fed2 c2c2B AA4  | A4A2BAG4d2c2B2BA  | 
w:  *  *  *  gi di *  yor  *  hep   |  *  ni ye  *  her kes   | 
A4B2BAA8z4  | |


